; generated by PrusaSlicer 2.5.0+MacOS-x64 on 2023-03-01 at 19:25:25 UTC


;
;
; 

; external perimeters extrusion width = 0.45mm
; perimeters extrusion width = 0.45mm
; infill extrusion width = 0.45mm
; solid infill extrusion width = 0.45mm
; top infill extrusion width = 0.40mm
; first layer extrusion width = 0.42mm

M73 P0 R58
M73 Q0 S59
M201 X1000 Y1000 Z200 E5000 ; sets maximum accelerations, mm/sec^2
M203 X200 Y200 Z12 E120 ; sets maximum feedrates, mm / sec
M204 P1250 R1250 T1250 ; sets acceleration (P, T) and retract acceleration (R), mm/sec^2
M205 X8.00 Y8.00 Z0.40 E4.50 ; sets the jerk limits, mm/sec
M205 S0 T0 ; sets the minimum extruding and travel feed rate, mm/sec
M107
;TYPE:Custom
M862.3 P "MK3S" ; printer model check
M862.1 P0.4 ; nozzle diameter check
M115 U3.12.1 ; tell printer latest fw version
G90 ; use absolute coordinates
M83 ; extruder relative mode
M104 S215 ; set extruder temp
M140 S60 ; set bed temp
M190 S60 ; wait for bed temp
M109 S215 ; wait for extruder temp
G28 W ; home all without mesh bed level
G80 ; mesh bed leveling

G1 Z0.2 F720
G1 Y-3 F1000 ; go outside print area
G92 E0
G1 X60 E9 F1000 ; intro line
G1 X100 E12.5 F1000 ; intro line

G92 E0
M221 S95

; Don't change E values below. Excessive value can damage the printer.
M907 E430 ; set extruder motor current
G21 ; set units to millimeters
G90 ; use absolute coordinates
M83 ; use relative distances for extrusion
M900 K0.05 ; Filament gcode LA 1.5
M900 K30 ; Filament gcode LA 1.0
M107
;LAYER_CHANGE
;Z:0.2
;HEIGHT:0.2
;BEFORE_LAYER_CHANGE
G92 E0.0
;0.2


G1 E-.8 F2100
G1 Z.4 F720
;AFTER_LAYER_CHANGE
;0.2
G1 X107.053 Y58.957 F10800
G1 Z.2 F720
G1 E.8 F2100
M204 S800
;TYPE:Skirt/Brim
;WIDTH:0.42
G1 F1200
G1 X107.642 Y57.908 E.03769
G1 X108.449 Y57.017 E.03769
G1 X109.434 Y56.328 E.03769
G1 X110.547 Y55.875 E.03769
G1 X111.734 Y55.681 E.03769
G1 X138.266 Y55.681 E.8319
G1 X138.934 Y55.757 E.02107
G1 X140.087 Y56.097 E.03769
G1 X140.578 Y56.335 E.01711
G1 X141.551 Y57.017 E.03727
G1 X151.777 Y68.465 E.4813
G1 X152.337 Y69.607 E.03987
G1 X164.98 Y137.309 E2.15946
G1 X164.835 Y138.666 E.04278
G1 X163.483 Y139.97 E.05889
G1 X125.84 Y154.18 E1.26159
G1 X124.16 Y154.18 E.05265
G1 X86.517 Y139.97 E1.26159
G1 X85.432 Y139.142 E.04278
M73 Q0 S58
G1 X84.982 Y137.854 E.04278
G1 X85.06 Y137.13 E.02281
G1 X106.787 Y59.732 E2.52057
G1 X107.034 Y59.013 E.02383
M204 S1000
; printing object Body16.stl id:0 copy 0
;WIPE_START
G1 F8640
G1 X107.642 Y57.908 E-.29123
G1 X108.449 Y57.017 E-.27759
G1 X109.127 Y56.542 E-.19117
;WIPE_END
G1 E-.04 F2100
G1 Z.6 F720
G1 X140.235 Y109.735 F10800
G1 Z.2 F720
G1 E.8 F2100
M204 S800
;TYPE:Perimeter
;WIDTH:0.419999
G1 F1200
G1 X140.213 Y109.822 E.0028
G1 X140.213 Y112.601 E.08714
G1 X140.33 Y113.379 E.02465
G1 X140.552 Y113.915 E.0182
G1 X140.661 Y114.089 E.00646
G1 X141.019 Y114.547 E.01821
G1 X160.954 Y134.483 E.88397
G1 X161.531 Y136.633 E.06979
G1 X158.994 Y135.953 E.08233
G1 X143.568 Y120.527 E.68401
G1 X143.027 Y120.111 E.02142
G1 X142.45 Y119.852 E.01981
G1 X141.83 Y119.73 E.01981
G1 X141.239 Y119.749 E.01857
G1 X140.589 Y119.914 E.02102
G1 X140.027 Y120.213 E.01994
G1 X139.257 Y120.86 E.03157
G1 X138.866 Y121.076 E.01398
G1 X138.442 Y121.208 E.01393
G1 X137.96 Y121.256 E.01518
G1 X129.668 Y121.256 E.26001
G1 X128.773 Y121.28 E.02807
G1 X128.208 Y121.373 E.01795
G1 X127.672 Y121.595 E.0182
G1 X127.469 Y121.727 E.00757
G1 X126.979 Y122.127 E.01984
G1 X126.626 Y122.587 E.0182
G1 X126.491 Y122.862 E.00959
G1 X126.292 Y123.394 E.01782
G1 X126.213 Y124.029 E.02005
G1 X126.213 Y148.281 E.76042
G1 X125 Y150.382 E.07606
G1 X123.787 Y148.281 E.07606
G1 X123.782 Y123.955 E.76273
G1 X123.67 Y123.252 E.02234
G1 X123.374 Y122.587 E.0228
G1 X122.916 Y122.023 E.0228
G1 X122.328 Y121.595 E.0228
G1 X121.649 Y121.335 E.0228
G1 X121.015 Y121.256 E.02005
G1 X112.172 Y121.256 E.27725
G1 X111.558 Y121.208 E.01931
G1 X111.134 Y121.076 E.01393
G1 X110.743 Y120.86 E.01398
G1 X109.862 Y120.14 E.03569
G1 X109.291 Y119.87 E.01981
G1 X108.674 Y119.735 E.01981
G1 X108.042 Y119.743 E.01981
G1 X107.428 Y119.894 E.01981
G1 X106.864 Y120.178 E.01981
G1 X106.432 Y120.527 E.01742
G1 X91.006 Y135.953 E.68401
G1 X88.469 Y136.633 E.08233
G1 X89.046 Y134.483 E.06979
G1 X108.981 Y114.547 E.88397
G1 X109.448 Y113.915 E.02465
G1 X109.708 Y113.236 E.0228
G1 X109.787 Y112.601 E.02005
G1 X109.787 Y63.524 E1.53878
;WIDTH:0.452404
G1 X109.803 Y63.125 E.0136
;WIDTH:0.484808
M73 P1 R58
M73 Q1 S58
G1 X109.819 Y62.726 E.01467
G1 X109.8 Y61.942 E.02883
;WIDTH:0.484113
G1 X109.819 Y61.523 E.01538
;WIDTH:0.521459
G1 X109.838 Y61.104 E.01668
;WIDTH:0.555501
G1 X109.882 Y60.853 E.01087
;WIDTH:0.589542
G1 X109.927 Y60.602 E.01159
;WIDTH:0.614216
G1 X110.052 Y60.26 E.01729
;WIDTH:0.650023
G1 X110.346 Y59.768 E.02893
G1 X110.671 Y59.432 E.02361
G1 X111.088 Y59.15 E.0254
;WIDTH:0.631204
G1 X111.558 Y58.971 E.02461
;WIDTH:0.589542
G1 X111.811 Y58.935 E.01162
;WIDTH:0.554632
G1 X112.065 Y58.899 E.01088
;WIDTH:0.519721
G1 X112.318 Y58.863 E.01014
;WIDTH:0.48481
G1 X113.053 Y58.845 E.02704
;WIDTH:0.44843
G1 X113.9 Y58.844 E.02853
;WIDTH:0.446849
G1 X114.48 Y58.831 E.01951
;WIDTH:0.419999
G1 X121.299 Y58.831 E.2138
;WIDTH:0.461731
G1 X121.532 Y58.852 E.00813
;WIDTH:0.503463
G1 X121.764 Y58.872 E.00894
;WIDTH:0.545195
G1 X121.997 Y58.893 E.00976
;WIDTH:0.586927
G1 X122.23 Y58.914 E.01057
G1 X123.038 Y58.893 E.03655
;WIDTH:0.544331
G1 X126.962 Y58.893 E.16364
;WIDTH:0.547081
G1 X127.061 Y58.894 E.00414
;WIDTH:0.5869
G1 X127.77 Y58.914 E.03209
G1 X127.875 Y58.892 E.00483
;WIDTH:0.543042
G1 X127.979 Y58.87 E.00444
;WIDTH:0.499183
G1 X128.34 Y58.851 E.01371
;WIDTH:0.459591
G1 X128.701 Y58.831 E.01252
;WIDTH:0.419999
G1 X137.958 Y58.831 E.29025
G1 X138.491 Y58.891 E.01683
G1 X138.958 Y59.054 E.0155
G1 X139.377 Y59.317 E.0155
G1 X139.726 Y59.667 E.0155
G1 X139.989 Y60.086 E.0155
G1 X140.153 Y60.552 E.0155
G1 X140.213 Y61.088 E.0169
G1 X140.213 Y70.265 E.28775
G1 X140.279 Y70.531 E.0086
G1 X140.439 Y70.717 E.00769
G1 X140.62 Y70.808 E.00634
G1 X140.779 Y70.831 E.00502
G1 X149.213 Y70.831 E.26445
G1 X149.213 Y109.256 E1.20481
G1 X140.779 Y109.256 E.26445
M73 P1 R57
G1 X140.62 Y109.279 E.00502
G1 X140.439 Y109.37 E.00634
G1 X140.279 Y109.556 E.00769
G1 X140.249 Y109.677 E.00392
M204 S1000
G1 X140.59 Y109.822 F10800
M204 S800
;TYPE:External perimeter
G1 F1200
G1 X140.59 Y112.601 E.08714
G1 X140.678 Y113.234 E.02004
G1 X140.961 Y113.86 E.02152
G1 X141.286 Y114.281 E.01667
G1 X161.293 Y134.287 E.88714
G1 X162.064 Y137.166 E.09344
G1 X158.799 Y136.291 E.10598
G1 X143.302 Y120.794 E.68717
G1 X142.865 Y120.451 E.01741
G1 X142.369 Y120.22 E.01714
G1 X141.834 Y120.107 E.01714
G1 X141.322 Y120.117 E.01606
G1 X140.758 Y120.251 E.01819
G1 X140.27 Y120.501 E.01719
G1 X139.471 Y121.173 E.03273
G1 X139.015 Y121.424 E.01633
G1 X138.518 Y121.579 E.01631
G1 X137.979 Y121.634 E.01697
G1 X128.961 Y121.635 E.28277
G1 X128.4 Y121.709 E.01774
G1 X128.216 Y121.778 E.00616
G1 X127.699 Y122.026 E.01798
G1 X127.278 Y122.357 E.01678
G1 X126.9 Y122.86 E.01973
G1 X126.665 Y123.443 E.01973
G1 X126.59 Y124.029 E.01851
G1 X126.59 Y148.383 E.76359
G1 X125 Y151.136 E.09971
G1 X123.41 Y148.383 E.09971
G1 X123.408 Y124.004 E.76436
G1 X123.322 Y123.396 E.01927
G1 X123.075 Y122.817 E.01973
G1 X122.687 Y122.322 E.01973
G1 X122.184 Y121.944 E.01973
G1 X121.6 Y121.709 E.01973
G1 X121.015 Y121.634 E.01851
G1 X112.021 Y121.634 E.282
G1 X111.482 Y121.579 E.01697
G1 X110.985 Y121.424 E.01631
G1 X110.529 Y121.173 E.01633
G1 X109.693 Y120.477 E.0341
G1 X109.202 Y120.236 E.01714
G1 X108.67 Y120.112 E.01714
G1 X108.123 Y120.112 E.01714
G1 X107.59 Y120.234 E.01714
G1 X107.099 Y120.474 E.01714
G1 X106.698 Y120.794 E.01608
G1 X91.201 Y136.291 E.68717
G1 X87.936 Y137.166 E.10598
G1 X88.707 Y134.287 E.09344
G1 X108.714 Y114.281 E.88714
G1 X109.1 Y113.77 E.02004
G1 X109.335 Y113.187 E.01973
G1 X109.41 Y112.601 E.01851
G1 X109.41 Y61.067 E1.61583
G1 X109.477 Y60.468 E.01889
G1 X109.669 Y59.921 E.01817
G1 X109.977 Y59.43 E.01817
G1 X110.387 Y59.021 E.01817
G1 X110.877 Y58.712 E.01817
G1 X111.424 Y58.521 E.01817
G1 X112.023 Y58.454 E.01889
G1 X137.979 Y58.454 E.81384
G1 X138.576 Y58.521 E.01882
G1 X139.123 Y58.712 E.01817
G1 X139.613 Y59.021 E.01817
G1 X140.023 Y59.43 E.01817
G1 X140.331 Y59.921 E.01817
G1 X140.523 Y60.468 E.01817
G1 X140.59 Y61.067 E.01889
G1 X140.59 Y70.265 E.28841
G1 X140.665 Y70.416 E.00529
G1 X140.779 Y70.454 E.00374
G1 X149.59 Y70.454 E.27628
G1 X149.59 Y109.634 E1.22846
G1 X140.779 Y109.634 E.27628
G1 X140.665 Y109.671 E.00374
G1 X140.617 Y109.768 E.00341
M204 S1000
G1 X140.204 Y109.926 F10800
;WIPE_START
G1 F8640
G1 X140.59 Y112.601 E-.65413
G1 X140.653 Y113.055 E-.10587
;WIPE_END
G1 E-.04 F2100
G1 Z.6 F720
G1 X112.29 Y59.319 F10800
G1 Z.2 F720
G1 E.8 F2100
M204 S800
;TYPE:Perimeter
;WIDTH:0.513571
G1 F1200
G1 X112.539 Y59.29 E.00979
;WIDTH:0.481377
G1 X112.888 Y59.25 E.0128
;WIDTH:0.483983
G1 X113.644 Y59.302 E.02781
G1 X113.986 Y59.449 E.01365
;WIDTH:0.451991
G1 X114.328 Y59.595 E.01266
;WIDTH:0.419999
G1 X114.916 Y60.023 E.0228
G1 X115.374 Y60.587 E.0228
G1 X115.67 Y61.252 E.0228
G1 X115.784 Y61.969 E.02278
G1 X115.708 Y62.693 E.02282
G1 X115.448 Y63.372 E.0228
G1 X115.021 Y63.96 E.0228
G1 X114.389 Y64.456 E.0252
G1 X118.244 Y64.456 E.12088
G1 X118.592 Y64.576 E.01154
G1 X118.674 Y64.655 E.00357
G1 X118.805 Y64.948 E.01007
G1 X118.885 Y65.556 E.01921
G1 X119.005 Y65.847 E.00987
G1 X119.197 Y66.096 E.00987
G1 X119.447 Y66.288 E.00987
G1 X119.738 Y66.409 E.00987
G1 X120.05 Y66.45 E.00987
G1 X120.362 Y66.409 E.00987
G1 X120.653 Y66.288 E.00987
G1 X120.903 Y66.096 E.00987
G1 X121.095 Y65.847 E.00987
G1 X121.215 Y65.556 E.00987
G1 X121.256 Y65.244 E.00987
G1 X121.215 Y64.931 E.00987
G1 X121.095 Y64.64 E.00987
G1 X120.903 Y64.391 E.00987
G1 X120.653 Y64.199 E.00987
G1 X120.362 Y64.078 E.00987
G1 X119.732 Y63.995 E.01994
G1 X119.446 Y63.871 E.00979
G1 X119.366 Y63.79 E.00357
G1 X119.244 Y63.371 E.01368
G1 X119.346 Y62.463 E.02866
G1 X119.566 Y61.792 E.02213
G1 X119.667 Y61.544 E.00841
G1 X120.032 Y60.964 E.0215
G1 X120.636 Y60.328 E.02749
G1 X121.351 Y59.861 E.02677
;WIDTH:0.455133
G1 X121.61 Y59.747 E.00971
;WIDTH:0.490267
G1 X121.869 Y59.632 E.01054
;WIDTH:0.525401
G1 X122.129 Y59.518 E.01137
;WIDTH:0.556164
G1 X122.194 Y59.487 E.0031
;WIDTH:0.586927
G1 X122.26 Y59.456 E.00328
G1 X122.967 Y59.397 E.03209
;WIDTH:0.5471
G1 X123.038 Y59.394 E.00295
;WIDTH:0.544331
G1 X126.962 Y59.394 E.16364
;WIDTH:0.5869
G1 X127.74 Y59.456 E.03528
G1 X127.939 Y59.544 E.00982
;WIDTH:0.545175
G1 X128.137 Y59.631 E.00907
;WIDTH:0.50345
G1 X128.336 Y59.719 E.00832
;WIDTH:0.461725
G1 X128.535 Y59.806 E.00756
;WIDTH:0.419999
G1 X129.26 Y60.245 E.02658
G1 X129.87 Y60.834 E.02658
G1 X130.333 Y61.544 E.02658
G1 X130.626 Y62.34 E.02658
G1 X130.756 Y63.371 E.03261
G1 X130.634 Y63.79 E.01368
G1 X130.554 Y63.871 E.00357
G1 X130.245 Y63.999 E.01048
G1 X129.638 Y64.078 E.01921
G1 X129.347 Y64.199 E.00987
G1 X129.097 Y64.391 E.00987
G1 X128.905 Y64.64 E.00987
G1 X128.785 Y64.931 E.00987
G1 X128.744 Y65.244 E.00987
G1 X128.785 Y65.556 E.00987
G1 X128.905 Y65.847 E.00987
G1 X129.097 Y66.096 E.00987
G1 X129.347 Y66.288 E.00987
G1 X129.638 Y66.409 E.00987
G1 X129.95 Y66.45 E.00987
G1 X130.262 Y66.409 E.00987
G1 X130.553 Y66.288 E.00987
G1 X130.803 Y66.096 E.00987
G1 X130.995 Y65.847 E.00987
G1 X131.115 Y65.556 E.00987
G1 X131.195 Y64.948 E.01921
G1 X131.326 Y64.655 E.01007
G1 X131.408 Y64.576 E.00357
G1 X131.756 Y64.456 E.01154
G1 X137.221 Y64.456 E.17137
G1 X137.407 Y64.488 E.00589
G1 X137.579 Y64.584 E.00619
G1 X137.727 Y64.768 E.0074
G1 X137.787 Y65.022 E.00819
G1 X137.787 Y115.065 E1.56906
G1 X137.752 Y115.262 E.00626
G1 X137.596 Y115.489 E.00863
G1 X137.407 Y115.599 E.00688
G1 X137.221 Y115.631 E.0059
G1 X131.756 Y115.631 E.17137
G1 X131.396 Y115.501 E.01199
G1 X131.326 Y115.432 E.00309
G1 X131.195 Y115.139 E.01007
G1 X131.115 Y114.531 E.01921
G1 X130.995 Y114.24 E.00987
G1 X130.803 Y113.991 E.00987
G1 X130.553 Y113.799 E.00987
G1 X130.262 Y113.678 E.00987
G1 X129.95 Y113.637 E.00987
G1 X129.638 Y113.678 E.00987
G1 X129.347 Y113.799 E.00987
G1 X129.097 Y113.991 E.00987
G1 X128.905 Y114.24 E.00987
G1 X128.785 Y114.531 E.00987
G1 X128.744 Y114.844 E.00987
G1 X128.785 Y115.156 E.00987
G1 X128.905 Y115.447 E.00987
G1 X129.097 Y115.696 E.00987
G1 X129.347 Y115.888 E.00987
G1 X129.638 Y116.009 E.00987
G1 X130.268 Y116.092 E.01994
G1 X130.554 Y116.216 E.00978
G1 X130.634 Y116.297 E.00357
G1 X130.756 Y116.716 E.01368
G1 X130.654 Y117.624 E.02866
G1 X130.388 Y118.429 E.02658
G1 X129.949 Y119.154 E.02658
G1 X129.359 Y119.763 E.02658
G1 X128.683 Y120.205 E.02534
G1 X128.133 Y120.422 E.01852
G1 X127.73 Y120.548 E.01323
G1 X127.026 Y120.627 E.02224
G1 X123.038 Y120.631 E.12505
G1 X122.27 Y120.548 E.02422
G1 X121.465 Y120.281 E.02658
G1 X120.74 Y119.842 E.02658
G1 X120.13 Y119.253 E.02658
G1 X119.667 Y118.543 E.02658
G1 X119.374 Y117.747 E.02658
G1 X119.244 Y116.716 E.03261
G1 X119.366 Y116.297 E.01368
G1 X119.446 Y116.216 E.00357
G1 X119.755 Y116.089 E.01048
G1 X120.362 Y116.009 E.01921
G1 X120.653 Y115.888 E.00987
G1 X120.903 Y115.696 E.00987
G1 X121.095 Y115.447 E.00987
G1 X121.215 Y115.156 E.00987
G1 X121.256 Y114.844 E.00987
G1 X121.215 Y114.531 E.00987
G1 X121.095 Y114.24 E.00987
G1 X120.903 Y113.991 E.00987
G1 X120.653 Y113.799 E.00987
G1 X120.362 Y113.678 E.00987
G1 X120.05 Y113.637 E.00987
G1 X119.738 Y113.678 E.00987
G1 X119.447 Y113.799 E.00987
G1 X119.197 Y113.991 E.00987
G1 X119.005 Y114.24 E.00987
G1 X118.885 Y114.531 E.00987
G1 X118.805 Y115.139 E.01921
G1 X118.674 Y115.432 E.01007
G1 X118.592 Y115.511 E.00357
G1 X118.244 Y115.631 E.01154
G1 X112.779 Y115.631 E.17137
G1 X112.532 Y115.574 E.00792
G1 X112.348 Y115.432 E.00729
G1 X112.227 Y115.191 E.00848
G1 X112.213 Y114.465 E.02276
G1 X112.213 Y65.022 E1.55024
G1 X112.295 Y64.737 E.0093
G1 X111.672 Y64.492 E.02101
G1 X111.084 Y64.064 E.0228
G1 X110.626 Y63.5 E.0228
;WIDTH:0.456389
G1 X110.313 Y62.842 E.02502
;WIDTH:0.484808
G1 X110.259 Y62.697 E.00569
G1 X110.203 Y62.119 E.02134
G1 X110.259 Y61.39 E.02687
;WIDTH:0.51972
G1 X110.323 Y61.172 E.00899
;WIDTH:0.554631
G1 X110.387 Y60.955 E.00965
;WIDTH:0.589542
G1 X110.451 Y60.737 E.01031
;WIDTH:0.631206
G1 X110.607 Y60.439 E.01643
;WIDTH:0.641101
G1 X110.95 Y59.993 E.02799
G1 X111.396 Y59.65 E.02799
;WIDTH:0.631204
G1 X111.693 Y59.495 E.01643
;WIDTH:0.589542
G1 X111.942 Y59.412 E.01189
;WIDTH:0.551557
G1 X112.19 Y59.33 E.01107
;WIDTH:0.513571
G1 X112.231 Y59.325 E.0016
M204 S1000
G1 X112.321 Y59.735 F10800
M204 S800
;TYPE:External perimeter
;WIDTH:0.419999
G1 F1200
G1 X112.939 Y59.638 E.01959
G1 X113.597 Y59.709 E.02076
G1 X114.184 Y59.944 E.01982
G1 X114.687 Y60.322 E.01973
G1 X115.075 Y60.817 E.01973
G1 X115.322 Y61.396 E.01973
G1 X115.41 Y62.018 E.01971
G1 X115.335 Y62.644 E.01975
G1 X115.1 Y63.227 E.01973
G1 X114.722 Y63.73 E.01973
G1 X114.226 Y64.119 E.01973
;WIDTH:0.451785
G1 X113.654 Y64.38 E.02141
G1 X113.025 Y64.455 E.02153
;WIDTH:0.422128
G1 X112.4 Y64.378 E.01985
;WIDTH:0.419999
G1 X111.816 Y64.143 E.01973
G1 X111.313 Y63.765 E.01973
G1 X110.925 Y63.27 E.01973
G1 X110.678 Y62.691 E.01973
G1 X110.59 Y62.068 E.01973
G1 X110.665 Y61.443 E.01973
G1 X110.878 Y60.914 E.0179
G1 X111.234 Y60.414 E.01925
G1 X111.689 Y60.033 E.01861
M73 P2 R57
G1 X111.87 Y59.921 E.00666
G1 X112.266 Y59.758 E.01343
M204 S1000
G1 X112.429 Y59.349 F10800
;WIPE_START
G1 F8640
G1 X112.939 Y59.638 E-.15779
G1 X113.597 Y59.709 E-.15286
G1 X114.184 Y59.944 E-.14599
G1 X114.687 Y60.322 E-.14529
G1 X115.075 Y60.817 E-.1453
G1 X115.097 Y60.868 E-.01277
;WIPE_END
G1 E-.04 F2100
G1 Z.6 F720
G1 X130.219 Y116.465 F10800
G1 Z.2 F720
M73 Q2 S58
G1 E.8 F2100
M204 S800
G1 F1200
G1 X130.341 Y116.534 E.00439
G1 X130.382 Y116.673 E.00456
G1 X130.279 Y117.582 E.02866
G1 X130.032 Y118.304 E.02394
G1 X129.629 Y118.953 E.02394
G1 X129.093 Y119.497 E.02394
G1 X128.482 Y119.886 E.02271
G1 X127.688 Y120.173 E.02646
G1 X126.984 Y120.252 E.02224
G1 X123.038 Y120.254 E.12372
G1 X122.312 Y120.173 E.0229
G1 X121.589 Y119.925 E.02394
G1 X120.94 Y119.523 E.02394
